svg/regular/bx-timer.svg

<svg xmlns="http://www.w3.org/2000/svg" width="24" height="24"><path d="m20.145 8.27 1.563-1.563-1.414-1.414L18.586 7c-1.05-.63-2.274-1-3.586-1-3.859 0-7 3.14-7 7s3.141 7 7 7 7-3.14 7-7a6.966 6.966 0 0 0-1.855-4.73zM15 18c-2.757 0-5-2.243-5-5s2.243-5 5-5 5 2.243 5 5-2.243 5-5 5z"/><path d="M14 10h2v4h-2zm-1-7h4v2h-4zM3 8h4v2H3zm0 8h4v2H3zm-1-4h3.99v2H2z"/></svg>

<svg xmlns="http://www.w3.org/2000/svg" width="24" height="24" viewBox="0 0 24 24"><path d="M20.145,8.27l1.563-1.563l-1.414-1.414L18.586,7c-1.05-0.63-2.274-1-3.586-1c-3.859,0-7,3.14-7,7s3.141,7,7,7s7-3.14,7-7 C22,11.175,21.292,9.517,20.145,8.27z M15,18c-2.757,0-5-2.243-5-5s2.243-5,5-5s5,2.243,5,5S17.757,18,15,18z"/><path d="M14 10H16V14H14zM13 3H17V5H13zM3 8H7V10H3zM3 16H7V18H3zM2 12H5.99V14H2z"/></svg>
